svg/color/gson.svg

<svg width="40" height="40" viewBox="0 0 40 40" fill="none" xmlns="http://www.w3.org/2000/svg">
<g clip-path="url(#clip0_821_4017)">
<path d="M20 0C31.0457 0 40 8.9543 40 20C40 31.0457 31.0457 40 20 40C8.95431 40 7.90517e-06 31.0457 0 20C6.58765e-07 8.95431 8.95431 1.97595e-06 20 0Z" fill="#E3EBF4"/>
<path d="M26 6C30.4183 6 34 9.58172 34 14V26C34 30.4183 30.4183 34 26 34H14C9.58172 34 6 30.4183 6 26V14C6 9.58172 9.58172 6 14 6H26Z" fill="#7399C6"/>
<path d="M16.4533 12.97C14.8573 12.97 13.5231 13.3965 12.5393 14.2747C11.2008 15.4738 10.4999 17.4794 10.4999 20.0507C10.4999 23.5256 11.1882 27.0343 16.0353 27.0343H24.5895C27.8279 27.0343 29.4999 25.434 29.4999 23.0105C29.4999 21.1274 28.3937 20.1394 26.6499 18.9318L24.7457 17.6103C23.5213 16.7616 23.1708 16.1325 23.1708 15.3218C23.1708 14.3 23.8464 13.6414 25.1806 13.6414C26.5528 13.6414 27.5197 14.4943 28.2459 16.7827H28.9299V12.9658H25.2271C23.9308 12.9658 22.643 13.2572 21.7522 14.1818C21.2202 14.7349 20.8655 15.5034 20.8655 16.5378C20.8655 17.302 20.9879 17.8594 21.2919 18.4294C21.807 19.3836 22.6473 19.9874 23.0104 20.2365L24.5008 21.2667C25.7168 22.1069 26.8779 22.8543 26.8779 24.2265C26.8779 25.5945 25.9111 26.3587 24.3826 26.3587C21.5326 26.3587 20.6755 23.8887 20.6755 20.7727V19.6369H16.1324V20.2956C17.3442 20.4856 17.9606 20.8276 17.9606 22.1196V23.7367C17.9606 25.396 17.5384 26.3587 16.0944 26.3587C15.4526 26.3587 15.0304 26.1476 14.701 25.7338C14.1142 24.9907 13.8735 23.3314 13.8735 20.0507C13.8735 18.3745 13.9833 17.0445 14.1944 16.0396C14.5406 14.3929 15.2035 13.5992 16.2717 13.5992C17.5426 13.5992 18.2182 14.5745 18.9782 16.7827L19.6622 16.7869V12.97H16.4533Z" fill="white" fill-opacity="0.95"/>
</g>
<defs>
<clipPath id="clip0_821_4017">
<rect width="40" height="40" fill="white"/>
</clipPath>
</defs>
</svg>

<svg xmlns="http://www.w3.org/2000/svg" width="40" height="40" fill="none" viewBox="0 0 40 40"><g clip-path="url(#gson_svg-a)"><path fill="#E3EBF4" d="M20 0c11.046 0 20 8.954 20 20s-8.954 20-20 20S0 31.046 0 20 8.954 0 20 0"/><path fill="#7399C6" d="M26 6a8 8 0 0 1 8 8v12a8 8 0 0 1-8 8H14a8 8 0 0 1-8-8V14a8 8 0 0 1 8-8z"/><path fill="#fff" fill-opacity=".95" d="M16.453 12.97c-1.596 0-2.93.426-3.914 1.305-1.338 1.199-2.04 3.204-2.04 5.776 0 3.475.69 6.983 5.536 6.983h8.555c3.238 0 4.91-1.6 4.91-4.023 0-1.884-1.106-2.872-2.85-4.08l-1.904-1.32c-1.225-.85-1.575-1.479-1.575-2.29 0-1.021.675-1.68 2.01-1.68 1.372 0 2.339.853 3.065 3.142h.684v-3.817h-3.703c-1.296 0-2.584.291-3.475 1.216-.532.553-.886 1.321-.886 2.356 0 .764.122 1.321.426 1.891.515.955 1.355 1.558 1.718 1.808l1.49 1.03c1.217.84 2.378 1.587 2.378 2.96 0 1.367-.967 2.132-2.495 2.132-2.85 0-3.707-2.47-3.707-5.586v-1.136h-4.544v.659c1.212.19 1.829.532 1.829 1.824v1.617c0 1.659-.423 2.622-1.867 2.622-.641 0-1.064-.211-1.393-.625-.587-.743-.828-2.403-.828-5.683 0-1.676.11-3.006.321-4.011.347-1.647 1.01-2.44 2.078-2.44 1.27 0 1.946.975 2.706 3.183l.684.004V12.97z"/></g><defs><clipPath id="gson_svg-a"><path fill="#fff" d="M0 0h40v40H0z"/></clipPath></defs></svg>
